assets/images/logo-WCD2.svg

<svg xmlns="http://www.w3.org/2000/svg" viewBox="0 0 400 400">
  <path d="M281.3 60.4v177c0 12.5-6.4 24.5-16.7 31.6-10.4-7.1-16.7-19-16.7-31.6v-177h-95.7v177c0 12.5-6.3 24.5-16.7 31.6-10.3-7.1-16.7-19-16.7-31.6v-177H23v177c0 50.1 40.8 90.9 90.9 90.9h43c14.9 0 29.8-3.8 43-10.8 13.2 7.1 28 10.8 43.1 10.8h43c50.1 0 90.9-40.8 90.9-90.9v-177h-95.6zM164.4 313l10.3 3.7c-2.1.5-4.2.9-6.3 1.2l-7.5-2.7c1.2-.8 2.4-1.5 3.5-2.2zm2.9-2.1c1-.8 2.1-1.5 3.1-2.3l14.2 5.2c-1.6.6-3.3 1.2-5 1.6l-12.3-4.5zm5.6-4.4c1-.8 1.9-1.6 2.8-2.4l17.2 6.3c-1.4.7-2.8 1.4-4.2 1.9l-15.8-5.8zm5.1-4.7l2.5-2.5 19.5 7.1-3.6 2.1-18.4-6.7zm4.5-4.8c.8-.9 1.5-1.8 2.2-2.6l21.4 7.8c-1 .8-2.1 1.6-3.2 2.3l-20.4-7.5zm26.3 3l-22.2-8.1c.7-.9 1.3-1.8 2-2.7l23.1 8.4c-1 .8-2 1.6-2.9 2.4zm5.1-4.6l-23.8-8.7c.6-.9 1.2-1.9 1.7-2.8l24.5 8.9c-.7.9-1.5 1.7-2.4 2.6zm4.6-4.9l-25.1-9.2c.5-.9 1-1.9 1.5-2.9l25.8 9.4c-.8 1-1.5 1.9-2.2 2.7zm4-5l-26.3-9.6c.4-1 .9-1.9 1.3-2.9l26.9 9.8c-.6.9-1.2 1.8-1.9 2.7zm3.5-5.2l-27.4-10c.4-1 .8-2 1.1-3.1l28 10.2c-.5 1-1.1 1.9-1.7 2.9zm7.5-5.8l-.4-.1H232.3c-.3 0-.6 0-1 .1-.2.1-.4.1-.7.2-.3.1-.6.2-.9.4l-29.1-10.6c.3-1 .7-2.1 1-3.1l38.7 14.1c-2.4-.2-4.6-.5-6.8-1zm14.6.8l-45.8-16.7c.3-1 .5-2.1.7-3.2l51.1 18.6c-2 .5-4 1-6 1.3zm-43.3-38.8l35 12.7c.3 1.3.7 2.6 1.2 3.9L204.7 240c0-.9.1-1.7.1-2.6v-.9zM212.2 70l26.1 9.5V83l-33.5-12.2V70h7.4zm26.1 3v3.5L220.6 70h9.5l8.2 3zm0 13v3.5l-33.5-12.2v-3.5L238.3 86zm0 6.5V96l-33.5-12.2v-3.5l33.5 12.2zm0 6.5v3.5l-33.5-12.2v-3.5L238.3 99zm0 6.5v3.4l-33.5-12.2v-3.5l33.5 12.3zm0 6.5v3.4l-33.5-12.2v-3.5l33.5 12.3zm0 6.5v3.4l-33.5-12.2v-3.5l33.5 12.3zm0 6.5v3.5l-33.5-12.2v-3.5l33.5 12.2zm0 6.6v3.5l-33.5-12.2v-3.5l33.5 12.2zm0 6.5v3.5l-33.5-12.2V126l33.5 12.1zm0 6.5v3.5l-33.5-12.2v-3.5l33.5 12.2zm0 6.5v3.5l-33.5-12.2v-3.5l33.5 12.2zm0 6.5v3.5l-33.5-12.2v-3.5l33.5 12.2zm0 6.5v3.4l-33.5-12.1v-3.5l33.5 12.2zm0 6.5v3.4l-33.5-12.2v-3.5l33.5 12.3zm0 6.5v3.5l-33.5-12.2v-3.5l33.5 12.2zm0 6.5v3.5l-33.5-12.2v-3.4l33.5 12.1zm0 6.5v3.5l-33.5-12.2V178l33.5 12.1zm0 6.5v3.5l-33.5-12.2v-3.5l33.5 12.2zm0 6.5v3.5l-33.5-12.2V191l33.5 12.1zm0 6.5v3.4l-33.5-12.2v-3.5l33.5 12.3zm0 6.6v3.4l-33.5-12.2V204l33.5 12.2zm0 6.5v3.4l-33.5-12.2v-3.4l33.5 12.2zm0 6.5v3.5l-33.5-12.2V217l33.5 12.2zm0 6.5v2.4c0 .4.1.8.1 1.2l-33.5-12.2v-3.4l33.4 12zm.2 6.6c.2 1.2.3 2.4.6 3.7l-34.3-12.5V230l33.7 12.3zm3.9 14.4c.7 1.4 1.4 2.9 2.2 4.2l-40.3-14.7.3-3.3 37.8 13.8zm4.7 8.2c1.2 1.7 2.5 3.3 3.9 4.9l-47.5-17.3c.2-1.1.4-2.2.5-3.3l43.1 15.7zm-138-192.3V76l-16.5-6h9.5l7 2.6zm0 6.5v3.4L75.7 70.3V70h8.5l24.9 9.1zm0 6.5V89L75.7 76.8v-3.5l33.4 12.3zm0 6.5v3.5L75.7 83.3v-3.4l33.4 12.2zm0 6.5v3.5L75.7 89.8v-3.4l33.4 12.2zm0 6.5v3.5L75.7 96.3v-3.4l33.4 12.2zm0 6.5v3.5l-33.5-12.2v-3.5l33.5 12.2zm0 6.5v3.5l-33.5-12.2v-3.5l33.5 12.2zm0 6.5v3.5l-33.5-12.2v-3.5l33.5 12.2zm0 6.5v3.4l-33.5-12.2v-3.5l33.5 12.3zm0 6.5v3.5l-33.5-12.2v-3.5l33.5 12.2zm0 6.5v3.5l-33.5-12.2v-3.5l33.5 12.2zm0 6.5v3.5l-33.5-12.2v-3.4l33.5 12.1zm0 6.5v3.5l-33.5-12.2V145l33.5 12.1zm0 6.6v3.5L75.6 155v-3.4l33.5 12.1zm0 6.5v3.5l-33.5-12.2V158l33.5 12.2zm0 6.5v3.4L75.7 168v-3.5l33.4 12.2zm0 6.5v3.4l-33.5-12.2V171l33.5 12.2zm0 6.5v3.4L75.7 181v-3.4l33.4 12.1zm0 6.5v3.5l-33.5-12.2V184l33.5 12.2zm0 6.5v3.5L75.7 194v-3.5l33.4 12.2zm0 6.5v3.5l-33.5-12.2v-3.4l33.5 12.1zm0 6.5v3.5L75.7 207v-3.5l33.4 12.2zm0 6.5v3.5l-33.5-12.2V210l33.5 12.2zm0 6.5v3.5L75.7 220v-3.5l33.4 12.2zm0 6.6v2.8c0 .2.1.5.1.7l-33.5-12.2v-3.5l33.4 12.2zm.3 6.5c.1 1.3.3 2.4.5 3.6L75.7 233v-3.5l33.7 12.3zm1.1 7c.3 1.3.7 2.6 1.1 3.9l-35.9-13.1c0-.7-.1-1.4-.1-2.2v-1.3l34.9 12.7zm2.6 7.4c.6 1.5 1.3 2.9 2.1 4.2l-38.4-13.9c-.3-1.3-.5-2.5-.7-3.7l37 13.4zm4.5 8.2c1.2 1.7 2.4 3.3 3.8 4.9L79.5 254c-.6-1.3-1.2-2.7-1.7-4.1l39.8 14.5zm-27.2 3.1l22.2 8.1c-8.4-.3-16-3.3-22.2-8.1zm29.4 7.7l-34.7-12.6c-1.3-1.5-2.5-3.1-3.5-4.7l44 16c-1.9.5-3.8.9-5.8 1.3zm-5.9 43.5c-44.8 0-81.3-36.5-81.3-81.3V70H66v167.4c0 26.4 21.5 47.9 47.9 47.9 8.4 0 16.6-2.2 24-6.5l3.8-2.5c12.3-8.8 19.8-23.1 20.1-38.2V70h33.5v167.4c0 37.2-25.1 69.5-61 78.7-6.7 1.7-13.5 2.6-20.4 2.6zm40.7 0c1-.5 2.1-1.1 3.1-1.7l4.2 1.5c-1.6.1-3.2.2-4.9.2h-2.4zm88.5 0c-11.5 0-23-2.5-33.5-7.2 10.1-7.1 18.7-16.4 25.1-27 2.8.5 5.6.8 8.4.8 8.4 0 16.6-2.2 24-6.5l3.8-2.5c12.3-8.8 19.8-23.1 20-38.2V70h33.5v167.4c0 37.2-25.1 69.5-61 78.7-6.6 1.7-13.4 2.6-20.3 2.6zm43 0h-1.3l-.6-.2c1.3-.7 2.5-1.4 3.8-2.1l5.4 2c-2.4.2-4.8.3-7.3.3zm13.5-1.2l-8.4-3c1.2-.7 2.3-1.5 3.4-2.2l11 4c-2 .5-4 .9-6 1.2zm10.8-2.5l-13-4.7c1-.8 2-1.5 3.1-2.4l14.8 5.4c-1.7.6-3.3 1.2-4.9 1.7zm8.7-3.3l-16.2-5.9 2.7-2.4 17.6 6.4c-1.3.5-2.7 1.2-4.1 1.9zm7.5-3.9l-18.7-6.8c.8-.9 1.6-1.7 2.4-2.6l19.8 7.2c-1.1.8-2.3 1.6-3.5 2.2zm6.5-4.1l-20.7-7.5 2.1-2.7 21.7 7.9c-1 .8-2.1 1.6-3.1 2.3zm5.6-4.4l-22.4-8.2c.6-.9 1.3-1.8 1.9-2.7l23.3 8.4c-.9.8-1.8 1.7-2.8 2.5zm5.1-4.7l-23.9-8.7c.6-.9 1.1-1.9 1.7-2.8l24.7 9c-.9.8-1.6 1.7-2.5 2.5zm4.5-4.9l-25.3-9.2c.5-1 1-1.9 1.5-2.9l25.9 9.4-2.1 2.7zm3.9-5.1l-26.5-9.6c.4-1 .8-2 1.3-3l27.1 9.8c-.6 1-1.2 1.9-1.9 2.8zm3.5-5.2l-27.6-10.1c.4-1 .7-2 1.1-3l28.2 10.3c-.6.9-1.1 1.8-1.7 2.8zm3-5.4L330 263.5c.3-1 .6-2.1.9-3.1l29.2 10.6c-.5 1-.9 2-1.4 3zm2.5-5.6l-29.6-10.8c.2-1.1.5-2.1.7-3.2l30.2 11c-.4 1-.8 2-1.3 3zm2.2-5.7l-30.6-11.2c.2-1 .3-2.2.4-3.3l31.1 11.3c-.3 1.1-.6 2.1-.9 3.2zm1.7-6l-31.5-11.5c.1-1.1.2-2.2.2-3.4l32 11.7c-.2 1.1-.5 2.2-.7 3.2zm1.2-6l-32.4-11.8v-3.4l32.8 11.9c-.1 1.1-.2 2.2-.4 3.3zm.8-6.2l-33.2-12.1V229l33.4 12.1c0 1.1-.1 2.3-.2 3.4zm.3-7.1v.7l-33.5-12.2v-3.5l33.5 12.2v2.8zm0-5.8l-33.5-12.2v-3.5l33.5 12.2v3.5zm0-6.5l-33.5-12.2v-3.5l33.5 12.2v3.5zm0-6.6l-33.5-12.2v-3.5l33.5 12.2v3.5zm0-6.4l-33.5-12.2v-3.5l33.5 12.2v3.5zm0-6.6l-33.5-12.2v-3.5l33.5 12.2v3.5zm0-6.5l-33.5-12.2v-3.5l33.5 12.2v3.5zm0-6.5l-33.5-12.2v-3.4l33.5 12.2v3.4zm0-6.5l-33.5-12.2v-3.4l33.5 12.2v3.4zm0-6.5l-33.5-12.2v-3.5l33.5 12.2v3.5zm0-6.5l-33.5-12.2v-3.5l33.5 12.2v3.5zm0-6.5l-33.5-12.2v-3.5l33.5 12.2v3.5zm0-6.5l-33.5-12.2v-3.5l33.5 12.2v3.5zm0-6.5l-33.5-12.2v-3.5l33.5 12.2v3.5zm0-6.5l-33.5-12.2v-3.5l33.5 12.2v3.5zm0-6.5l-33.5-12.2v-3.4l33.5 12.2v3.4zm0-6.5l-33.5-12.2v-3.4l33.5 12.2v3.4zm0-6.5l-33.5-12.2v-3.4l33.5 12.2v3.4zm0-6.6l-33.5-12.2v-3.5l33.5 12.2v3.5zm0-6.5l-33.5-12.2v-3.5l33.5 12.2v3.5zm0-6.5l-33.5-12.2v-3.5l33.5 12.2v3.5zm0-6.5l-33.5-12.2v-3.5l33.5 12.2v3.5zm0-6.5l-33.5-12.2v-3.5l33.5 12.2v3.5zm0-6.5l-33.5-12.2v-3.5l33.5 12.2v3.5zm0-6.5L334.7 70h9.5l23.2 8.5v3.4zm0-6.5L352.6 70h9.5l5.3 1.9v3.5z" fill="#ea576e"/>
</svg>

<?xml version="1.0" encoding="utf-8"?>
<!-- Generator: Adobe Illustrator 19.2.0, SVG Export Plug-In . SVG Version: 6.00 Build 0)  -->
<svg version="1.1" id="Capa_1" xmlns="http://www.w3.org/2000/svg" xmlns:xlink="http://www.w3.org/1999/xlink" x="0px" y="0px"
	 viewBox="0 0 400 400" style="enable-background:new 0 0 400 400;" xml:space="preserve">
<style type="text/css">
	.st0{fill:#EA576E;}
</style>
<path class="st0" d="M281.3,60.4v177c0,12.5-6.4,24.5-16.7,31.6c-10.4-7.1-16.7-19-16.7-31.6v-177h-95.7v177
	c0,12.5-6.3,24.5-16.7,31.6c-10.3-7.1-16.7-19-16.7-31.6v-177H23v177c0,50.1,40.8,90.9,90.9,90.9h43c14.9,0,29.8-3.8,43-10.8
	c13.2,7.1,28,10.8,43.1,10.8h43c50.1,0,90.9-40.8,90.9-90.9v-177H281.3L281.3,60.4z M164.4,313l10.3,3.7c-2.1,0.5-4.2,0.9-6.3,1.2
	l-7.5-2.7C162.1,314.4,163.3,313.7,164.4,313L164.4,313z M167.3,310.9c1-0.8,2.1-1.5,3.1-2.3l14.2,5.2c-1.6,0.6-3.3,1.2-5,1.6
	L167.3,310.9L167.3,310.9z M172.9,306.5c1-0.8,1.9-1.6,2.8-2.4l17.2,6.3c-1.4,0.7-2.8,1.4-4.2,1.9L172.9,306.5z M178,301.8
	c0.8-0.8,1.6-1.6,2.5-2.5l19.5,7.1c-1.2,0.7-2.4,1.4-3.6,2.1L178,301.8z M182.5,297c0.8-0.9,1.5-1.8,2.2-2.6l21.4,7.8
	c-1,0.8-2.1,1.6-3.2,2.3L182.5,297L182.5,297z M208.8,300l-22.2-8.1c0.7-0.9,1.3-1.8,2-2.7l23.1,8.4
	C210.7,298.4,209.7,299.2,208.8,300z M213.9,295.4l-23.8-8.7c0.6-0.9,1.2-1.9,1.7-2.8l24.5,8.9C215.6,293.7,214.8,294.5,213.9,295.4
	L213.9,295.4z M218.5,290.5l-25.1-9.2c0.5-0.9,1-1.9,1.5-2.9l25.8,9.4C219.9,288.8,219.2,289.7,218.5,290.5L218.5,290.5z
	 M222.5,285.5l-26.3-9.6c0.4-1,0.9-1.9,1.3-2.9l26.9,9.8C223.8,283.7,223.2,284.6,222.5,285.5L222.5,285.5z M226,280.3l-27.4-10
	c0.4-1,0.8-2,1.1-3.1l28,10.2C227.2,278.4,226.6,279.3,226,280.3L226,280.3z M233.5,274.5l-0.4-0.1H233c-0.2,0-0.4,0-0.6,0h-0.1
	c-0.3,0-0.6,0-1,0.1c-0.2,0.1-0.4,0.1-0.7,0.2c-0.3,0.1-0.6,0.2-0.9,0.4l-29.1-10.6c0.3-1,0.7-2.1,1-3.1l38.7,14.1
	C237.9,275.3,235.7,275,233.5,274.5L233.5,274.5z M248.1,275.3l-45.8-16.7c0.3-1,0.5-2.1,0.7-3.2l51.1,18.6
	C252.1,274.5,250.1,275,248.1,275.3L248.1,275.3z M204.8,236.5l35,12.7c0.3,1.3,0.7,2.6,1.2,3.9L204.7,240c0-0.9,0.1-1.7,0.1-2.6
	V236.5L204.8,236.5z M212.2,70l26.1,9.5v3.5l-33.5-12.2V70L212.2,70L212.2,70z M238.3,73v3.5L220.6,70h9.5L238.3,73L238.3,73z
	 M238.3,86v3.5l-33.5-12.2v-3.5L238.3,86L238.3,86z M238.3,92.5v3.5l-33.5-12.2v-3.5L238.3,92.5L238.3,92.5z M238.3,99v3.5
	l-33.5-12.2v-3.5L238.3,99z M238.3,105.5v3.4l-33.5-12.2v-3.5L238.3,105.5L238.3,105.5z M238.3,112v3.4l-33.5-12.2v-3.5L238.3,112
	L238.3,112z M238.3,118.5v3.4l-33.5-12.2v-3.5L238.3,118.5L238.3,118.5z M238.3,125v3.5l-33.5-12.2v-3.5L238.3,125L238.3,125z
	 M238.3,131.6v3.5l-33.5-12.2v-3.5L238.3,131.6L238.3,131.6z M238.3,138.1v3.5l-33.5-12.2v-3.4L238.3,138.1L238.3,138.1z
	 M238.3,144.6v3.5l-33.5-12.2v-3.5L238.3,144.6L238.3,144.6z M238.3,151.1v3.5l-33.5-12.2v-3.5L238.3,151.1L238.3,151.1z
	 M238.3,157.6v3.5l-33.5-12.2v-3.5L238.3,157.6z M238.3,164.1v3.4l-33.5-12.1v-3.5L238.3,164.1L238.3,164.1z M238.3,170.6v3.4
	l-33.5-12.2v-3.5L238.3,170.6L238.3,170.6z M238.3,177.1l0,3.5l-33.5-12.2v-3.5L238.3,177.1L238.3,177.1z M238.3,183.6v3.5
	l-33.5-12.2v-3.4L238.3,183.6L238.3,183.6z M238.3,190.1v3.5l-33.5-12.2V178L238.3,190.1L238.3,190.1z M238.3,196.6v3.5l-33.5-12.2
	v-3.5L238.3,196.6L238.3,196.6z M238.3,203.1v3.5l-33.5-12.2V191L238.3,203.1z M238.3,209.6v3.4l-33.5-12.2v-3.5L238.3,209.6
	L238.3,209.6z M238.3,216.2v3.4l-33.5-12.2V204L238.3,216.2L238.3,216.2z M238.3,222.7v3.4l-33.5-12.2v-3.4L238.3,222.7z
	 M238.3,229.2v3.5l-33.5-12.2V217L238.3,229.2L238.3,229.2z M238.3,235.7v2.4c0,0.4,0.1,0.8,0.1,1.2l-33.5-12.2v-3.4L238.3,235.7
	L238.3,235.7z M238.5,242.3c0.2,1.2,0.3,2.4,0.6,3.7l-34.3-12.5V230L238.5,242.3L238.5,242.3z M242.4,256.7c0.7,1.4,1.4,2.9,2.2,4.2
	l-40.3-14.7c0.1-1.1,0.2-2.2,0.3-3.3L242.4,256.7L242.4,256.7z M247.1,264.9c1.2,1.7,2.5,3.3,3.9,4.9l-47.5-17.3
	c0.2-1.1,0.4-2.2,0.5-3.3L247.1,264.9L247.1,264.9z M109.1,72.6V76l-16.5-6h9.5L109.1,72.6L109.1,72.6z M109.1,79.1v3.4L75.7,70.3
	V70h8.5L109.1,79.1L109.1,79.1z M109.1,85.6V89L75.7,76.8v-3.5L109.1,85.6L109.1,85.6z M109.1,92.1v3.5L75.7,83.3v-3.4L109.1,92.1
	L109.1,92.1z M109.1,98.6v3.5L75.7,89.8v-3.4L109.1,98.6L109.1,98.6z M109.1,105.1v3.5L75.7,96.3v-3.4L109.1,105.1z M109.1,111.6
	v3.5l-33.5-12.2v-3.5L109.1,111.6z M109.1,118.1v3.5l-33.5-12.2v-3.5L109.1,118.1L109.1,118.1z M109.1,124.6v3.5l-33.5-12.2v-3.5
	L109.1,124.6z M109.1,131.1v3.4l-33.5-12.2v-3.5L109.1,131.1L109.1,131.1z M109.1,137.6v3.5l-33.5-12.2v-3.5L109.1,137.6
	L109.1,137.6z M109.1,144.1v3.5l-33.5-12.2v-3.5L109.1,144.1L109.1,144.1z M109.1,150.6v3.5l-33.5-12.2v-3.4L109.1,150.6
	L109.1,150.6z M109.1,157.1v3.5l-33.5-12.2V145L109.1,157.1z M109.1,163.7v3.5l-33.5-12.2v-3.4L109.1,163.7L109.1,163.7z
	 M109.1,170.2v3.5l-33.5-12.2V158L109.1,170.2z M109.1,176.7v3.4L75.7,168v-3.5L109.1,176.7z M109.1,183.2v3.4l-33.5-12.2V171
	L109.1,183.2L109.1,183.2z M109.1,189.7v3.4L75.7,181v-3.4L109.1,189.7L109.1,189.7z M109.1,196.2v3.5l-33.5-12.2V184L109.1,196.2
	L109.1,196.2z M109.1,202.7v3.5L75.7,194v-3.5L109.1,202.7z M109.1,209.2v3.5l-33.5-12.2v-3.4L109.1,209.2z M109.1,215.7v3.5
	L75.7,207v-3.5L109.1,215.7z M109.1,222.2v3.5l-33.5-12.2v-3.5L109.1,222.2L109.1,222.2z M109.1,228.7v3.5L75.7,220v-3.5
	L109.1,228.7L109.1,228.7z M109.1,235.3v2.8c0,0.2,0.1,0.5,0.1,0.7l-33.5-12.2v-3.5L109.1,235.3L109.1,235.3z M109.4,241.8
	c0.1,1.3,0.3,2.4,0.5,3.6L75.7,233v-3.5L109.4,241.8L109.4,241.8z M110.5,248.8c0.3,1.3,0.7,2.6,1.1,3.9l-35.9-13.1
	c0-0.7-0.1-1.4-0.1-2.2v-1.3L110.5,248.8z M113.1,256.2c0.6,1.5,1.3,2.9,2.1,4.2l-38.4-13.9c-0.3-1.3-0.5-2.5-0.7-3.7L113.1,256.2
	L113.1,256.2z M117.6,264.4c1.2,1.7,2.4,3.3,3.8,4.9L79.5,254c-0.6-1.3-1.2-2.7-1.7-4.1L117.6,264.4z M90.4,267.5l22.2,8.1
	C104.2,275.3,96.6,272.3,90.4,267.5L90.4,267.5z M119.8,275.2l-34.7-12.6c-1.3-1.5-2.5-3.1-3.5-4.7l44,16
	C123.7,274.4,121.8,274.8,119.8,275.2L119.8,275.2z M113.9,318.7c-44.8,0-81.3-36.5-81.3-81.3V70H66v167.4
	c0,26.4,21.5,47.9,47.9,47.9c8.4,0,16.6-2.2,24-6.5l3.8-2.5c12.3-8.8,19.8-23.1,20.1-38.2V70h33.5v167.4c0,37.2-25.1,69.5-61,78.7
	C127.6,317.8,120.8,318.7,113.9,318.7L113.9,318.7z M154.6,318.7c1-0.5,2.1-1.1,3.1-1.7l4.2,1.5c-1.6,0.1-3.2,0.2-4.9,0.2
	L154.6,318.7L154.6,318.7z M243.1,318.7c-11.5,0-23-2.5-33.5-7.2c10.1-7.1,18.7-16.4,25.1-27c2.8,0.5,5.6,0.8,8.4,0.8
	c8.4,0,16.6-2.2,24-6.5l3.8-2.5c12.3-8.8,19.8-23.1,20-38.2V70h33.5v167.4c0,37.2-25.1,69.5-61,78.7
	C256.8,317.8,250,318.7,243.1,318.7L243.1,318.7z M286.1,318.7h-1.3l-0.6-0.2c1.3-0.7,2.5-1.4,3.8-2.1l5.4,2
	C291,318.6,288.6,318.7,286.1,318.7L286.1,318.7z M299.6,317.5l-8.4-3c1.2-0.7,2.3-1.5,3.4-2.2l11,4
	C303.6,316.8,301.6,317.2,299.6,317.5z M310.4,315l-13-4.7c1-0.8,2-1.5,3.1-2.4l14.8,5.4C313.6,313.9,312,314.5,310.4,315z
	 M319.1,311.7l-16.2-5.9c0.9-0.8,1.8-1.6,2.7-2.4l17.6,6.4C321.9,310.3,320.5,311,319.1,311.7z M326.6,307.8l-18.7-6.8
	c0.8-0.9,1.6-1.7,2.4-2.6l19.8,7.2C329,306.4,327.8,307.2,326.6,307.8L326.6,307.8z M333.1,303.7l-20.7-7.5c0.7-0.9,1.4-1.8,2.1-2.7
	l21.7,7.9C335.2,302.2,334.1,303,333.1,303.7z M338.7,299.3l-22.4-8.2c0.6-0.9,1.3-1.8,1.9-2.7l23.3,8.4
	C340.6,297.6,339.7,298.5,338.7,299.3L338.7,299.3z M343.8,294.6l-23.9-8.7c0.6-0.9,1.1-1.9,1.7-2.8l24.7,9
	C345.4,292.9,344.7,293.8,343.8,294.6L343.8,294.6z M348.3,289.7l-25.3-9.2c0.5-1,1-1.9,1.5-2.9l25.9,9.4
	C349.7,287.9,349,288.8,348.3,289.7L348.3,289.7z M352.2,284.6l-26.5-9.6c0.4-1,0.8-2,1.3-3l27.1,9.8
	C353.5,282.8,352.9,283.7,352.2,284.6L352.2,284.6z M355.7,279.4l-27.6-10.1c0.4-1,0.7-2,1.1-3l28.2,10.3
	C356.8,277.5,356.3,278.4,355.7,279.4L355.7,279.4z M358.7,274L330,263.5c0.3-1,0.6-2.1,0.9-3.1l29.2,10.6
	C359.6,272,359.2,273,358.7,274L358.7,274z M361.2,268.4l-29.6-10.8c0.2-1.1,0.5-2.1,0.7-3.2l30.2,11
	C362.1,266.4,361.7,267.4,361.2,268.4L361.2,268.4z M363.4,262.7l-30.6-11.2c0.2-1,0.3-2.2,0.4-3.3l31.1,11.3
	C364,260.6,363.7,261.6,363.4,262.7L363.4,262.7z M365.1,256.7l-31.5-11.5c0.1-1.1,0.2-2.2,0.2-3.4l32,11.7
	C365.6,254.6,365.3,255.7,365.1,256.7L365.1,256.7z M366.3,250.7l-32.4-11.8c0-0.5,0-1,0-1.5v-1.9l32.8,11.9
	C366.6,248.5,366.5,249.6,366.3,250.7L366.3,250.7z M367.1,244.5l-33.2-12.1V229l33.4,12.1C367.3,242.2,367.2,243.4,367.1,244.5
	L367.1,244.5z M367.4,237.4c0,0.2,0,0.5,0,0.7l-33.5-12.2v-3.5l33.5,12.2L367.4,237.4L367.4,237.4z M367.4,231.6l-33.5-12.2v-3.5
	l33.5,12.2V231.6L367.4,231.6z M367.4,225.1l-33.5-12.2v-3.5l33.5,12.2V225.1z M367.4,218.5l-33.5-12.2v-3.5l33.5,12.2V218.5
	L367.4,218.5z M367.4,212.1l-33.5-12.2v-3.5l33.5,12.2V212.1L367.4,212.1z M367.4,205.5l-33.5-12.2v-3.5l33.5,12.2V205.5
	L367.4,205.5z M367.4,199l-33.5-12.2v-3.5l33.5,12.2V199z M367.4,192.5l-33.5-12.2v-3.4l33.5,12.2V192.5L367.4,192.5z M367.4,186
	l-33.5-12.2v-3.4l33.5,12.2V186L367.4,186z M367.4,179.5l-33.5-12.2v-3.5l33.5,12.2V179.5L367.4,179.5z M367.4,173l-33.5-12.2v-3.5
	l33.5,12.2V173L367.4,173z M367.4,166.5l-33.5-12.2v-3.5l33.5,12.2V166.5L367.4,166.5z M367.4,160l-33.5-12.2v-3.5l33.5,12.2V160
	L367.4,160z M367.4,153.5l-33.5-12.2v-3.5l33.5,12.2V153.5z M367.4,147l-33.5-12.2v-3.5l33.5,12.2V147L367.4,147z M367.4,140.5
	l-33.5-12.2v-3.4l33.5,12.2V140.5L367.4,140.5z M367.4,134l-33.5-12.2v-3.4l33.5,12.2V134L367.4,134z M367.4,127.5l-33.5-12.2v-3.4
	l33.5,12.2V127.5L367.4,127.5z M367.4,120.9l-33.5-12.2v-3.5l33.5,12.2V120.9L367.4,120.9z M367.4,114.4l-33.5-12.2v-3.5l33.5,12.2
	V114.4L367.4,114.4z M367.4,107.9l-33.5-12.2v-3.5l33.5,12.2V107.9z M367.4,101.4l-33.5-12.2v-3.5l33.5,12.2V101.4L367.4,101.4z
	 M367.4,94.9l-33.5-12.2v-3.5l33.5,12.2V94.9L367.4,94.9z M367.4,88.4l-33.5-12.2v-3.5l33.5,12.2V88.4L367.4,88.4z M367.4,81.9
	L334.7,70h9.5l23.2,8.5V81.9L367.4,81.9z M367.4,75.4L352.6,70h9.5l5.3,1.9L367.4,75.4L367.4,75.4z"/>
</svg>
